X: 1
T: Pamela's Ruchenitsa
M: 4/4
L: 1/8
R: barndance
K: Ador
|:[M:7/8]CDEF GFG|BAGF EEF|GAAD A2d|c2cB ABG|
c2cA B2G|FAGE DEF|GAAD A2A:|
|:AGEG AEc|AEcE A2A|BAGA Bcd|egfe e2e|
dcde c2A|cBcd B2G|A2Ac BAG|1AGEG A2A:|2AGEG A3||
